X: 31
T: Bon jour bon mois bon an et bonne estraine
N: Derived from Duf3025-Bon_jour_bon_mois_bon_an_et_bonne_estraine.krn
C: Guillaume Du Fay
%%abc-version 2.0
%%abcx-abcm2ps-target-version 5.9.1 (29 Sep 2008)
%%abc-creator hum2abc beta
%%abcx-conversion-date 2019/02/16 20:31:47
%%abc-edited-by Jesse Rodin
%%abc-edited-by Jesse Rodin 3/28/2016
%%abcx-initial-encoding-date 2016/03/28/
%%humdrum-veritas 3449148588
%%humdrum-veritas-data 319210854
%%linebreak <none>
%%barnumbers 0
L: 1/4
M: 3/1
Q: 1/2=120
V: 1 clef=treble
V: 2 clef=treble-8
V: 3 clef=treble-8
K: F
[V:1] G4G4G4 | 
[V:2] G12 | 
[V:3] z12 | 
[V:1] D8G4 | 
[V:2] B12 | 
[V:3] G4G4G4 | 
[V:1] A4d8 | 
[V:2] A8B4 | 
[V:3] D8G4 | 
[V:1] c4B8 | 
[V:2] A4G8 | 
[V:3] A4d8 | 
[V:1] A8G4 | 
[V:2] A4d8 | 
[V:3] c4B8 | 
[V:1] A4E4z4 | 
[V:2] c8B4 | 
[V:3] A8G4 | 
[V:1] c4=B6A2 | 
[V:2] A4G8 | 
[V:3] A4E8 | 
[V:1] A6^G2G2^F2 | 
[V:2] A4E8 | 
[V:3] c4=B8 | 
[V:1] A8z4 | 
[V:2] z4F8 | 
[V:3] A4z4A4 | 
[V:1] A4A4A4 | 
[V:2] D8D4 | 
[V:3] d8d4 | 
[V:1] B8A4 | 
[V:2] d4e4c4 | 
[V:3] G8A4 | 
[V:1] G4c8 | 
[V:2] z4e8 | 
[V:3] c8c4 | 
[V:1] B4A8 | 
[V:2] f8e4 | 
[V:3] d8c4 | 
[V:1] G6^F2F2E2 | 
[V:2] d4c8 | 
[V:3] B4A8 | 
[V:1] G12 | 
[V:2] d12 | 
[V:3] G8z4 | 
[V:1] z4z4G4 | 
[V:2] A8A4 | 
[V:3] c12 | 
[V:1] F4E8 | 
[V:2] A8A4 | 
[V:3] c8c4 | 
[V:1] D8F4 | 
[V:2] D8d4 | 
[V:3] d8d4 | 
[V:1] G4B8 | 
[V:2] c4f8 | 
[V:3] e4d8 | 
[V:1] A4G6F2 | 
[V:2] e4d8 | 
[V:3] c4B8 | 
[V:1] A4z4D4 | 
[V:2] c8B4 | 
[V:3] A8G4 | 
[V:1] E2F2G2FGA2F2 | 
[V:2] A4G4D4 | 
[V:3] c4B4A4 | 
[V:1] G2A2B2ABc2B2 | 
[V:2] G4z4A4 | 
[V:3] z4G4F4 | 
[V:1] G2B2A2F2G2A2 | 
[V:2] d8d4 | 
[V:3] G4D8 | 
[V:1] F2EFD2^C2C2=B,2 | 
[V:2] c2B2A4G4 | 
[V:3] F8E4 | 
[V:1] D12 | 
[V:2] A12- | 
[V:3] D8z4 | 
[V:1] z12 | 
[V:2] A8A4 | 
[V:3] D4E4F4 | 
[V:1] D4E4F4 | 
[V:2] B8c4 | 
[V:3] G8z4 | 
[V:1] G8z4 | 
[V:2] z4d8 | 
[V:3] G4G4G4 | 
[V:1] G4G4G4 | 
[V:2] e8d4 | 
[V:3] c8B4 | 
[V:1] c8B4 | 
[V:2] e12 | 
[V:3] A8z4 | 
[V:1] A8z4 | 
[V:2] f12 | 
[V:3] d4d4d4 | 
[V:1] d4d4d4 | 
[V:2] d12 | 
[V:3] G8B4 | 
[V:1] G8B4 | 
[V:2] z4z4z4 | 
[V:3] c4_e4d4 | 
[V:1] c6B2A4 | 
[V:2] A12- | 
[V:3] c12- | 
[V:1] G4F8 | 
[V:2] A4D8 | 
[V:3] c4d8 | 
[V:1] E4z4D4 | 
[V:2] c8d4- | 
[V:3] A8B4- | 
[V:1] F4A6D2 | 
[V:2] d4D8 | 
[V:3] B4A8 | 
[V:1] D4z4B4 | 
[V:2] d4B4G4 | 
[V:3] z4G8 | 
[V:1] A4d6c2 | 
[V:2] z4D4E2F2 | 
[V:3] d8G4 | 
[V:1] B4A6G2 | 
[V:2] G4z4A4 | 
[V:3] z4d4c4 | 
[V:1] c4B2G2A2B2 | 
[V:2] F4G4D4 | 
[V:3] z4_e4d4 | 
[V:1] G4^F4G2E2 | 
[V:2] d8c4 | 
[V:3] B4A8 | 
[V:1] G12 |]  
[V:2] d12 |]  
[V:3] G12 |]  



